icons/svg/commenting_24.svg

<?xml version="1.0" encoding="UTF-8"?>
<svg width="24px" height="24px" viewBox="0 0 24 24" version="1.1" xmlns="http://www.w3.org/2000/svg" xmlns:xlink="http://www.w3.org/1999/xlink">
    <!-- Generator: Sketch 59.1 (86144) - https://sketch.com -->
    <title>commenting_24</title>
    <desc>Created with Sketch.</desc>
    <g id="New-Icon" stroke="none" stroke-width="1" fill="none" fill-rule="evenodd">
        <g id="commenting_24" fill="#171B1F">
            <path d="M11.9678,0.9997 C18.0148,0.9997 22.9348,5.9327 22.9348,11.9957 C22.9348,18.0587 18.0148,22.9917 11.9678,22.9917 C10.1238,22.9917 8.2988,22.5177 6.6758,21.6187 L6.6758,21.6187 L1.6298,22.9747 C1.5868,22.9867 1.5438,22.9917 1.4998,22.9917 C1.3688,22.9917 1.2418,22.9407 1.1468,22.8457 C1.0208,22.7197 0.9708,22.5347 1.0168,22.3627 L1.0168,22.3627 L2.3698,17.3017 C1.4728,15.6747 0.9998,13.8447 0.9998,11.9957 C0.9998,5.9327 5.9198,0.9997 11.9678,0.9997 Z M11.9678,1.9997 C6.4718,1.9997 1.9998,6.4847 1.9998,11.9957 C1.9998,13.7387 2.4628,15.4637 3.3388,16.9837 C3.4048,17.0987 3.4228,17.2347 3.3878,17.3627 L3.3878,17.3627 L2.2068,21.7837 L6.6148,20.5997 C6.6578,20.5887 6.7008,20.5827 6.7448,20.5827 C6.8318,20.5827 6.9188,20.6057 6.9948,20.6507 C8.5098,21.5277 10.2298,21.9917 11.9678,21.9917 C17.4638,21.9917 21.9348,17.5077 21.9348,11.9957 C21.9348,6.4847 17.4638,1.9997 11.9678,1.9997 Z M7.4351,11.5 C7.7111,11.5 7.9351,11.724 7.9351,12 C7.9351,12.276 7.7111,12.5 7.4351,12.5 C7.1591,12.5 6.9351,12.276 6.9351,12 C6.9351,11.724 7.1591,11.5 7.4351,11.5 Z M11.9351,11.5 C12.2111,11.5 12.4351,11.724 12.4351,12 C12.4351,12.276 12.2111,12.5 11.9351,12.5 C11.6591,12.5 11.4351,12.276 11.4351,12 C11.4351,11.724 11.6591,11.5 11.9351,11.5 Z M16.4351,11.5 C16.7111,11.5 16.9351,11.724 16.9351,12 C16.9351,12.276 16.7111,12.5 16.4351,12.5 C16.1591,12.5 15.9351,12.276 15.9351,12 C15.9351,11.724 16.1591,11.5 16.4351,11.5 Z" id="fill"></path>
        </g>
    </g>
</svg>

<svg width="24" height="24" xmlns="http://www.w3.org/2000/svg"><path d="M11.968 1c6.047 0 10.967 4.933 10.967 10.996 0 6.063-4.92 10.996-10.967 10.996-1.844 0-3.67-.474-5.292-1.373L1.63 22.975a.498.498 0 01-.613-.612l1.353-5.061A11.007 11.007 0 011 11.996C1 5.933 5.92 1 11.968 1zm0 1C6.472 2 2 6.485 2 11.996c0 1.743.463 3.468 1.339 4.988a.497.497 0 01.049.379l-1.181 4.42L6.615 20.6a.492.492 0 01.38.051 9.943 9.943 0 004.973 1.34c5.496 0 9.967-4.483 9.967-9.995C21.935 6.485 17.464 2 11.968 2zm-4.533 9.5a.5.5 0 110 1 .5.5 0 010-1zm4.5 0a.5.5 0 110 1 .5.5 0 010-1zm4.5 0a.5.5 0 110 1 .5.5 0 010-1z" fill="#171B1F" fill-rule="evenodd"/></svg>
